src/resources/icons/cart-icon.svg

<svg role="img" width="21" height="20" viewBox="0 0 21 20" fill="none" aria-hidden="true"  xmlns="http://www.w3.org/2000/svg">
    <path
        d="M1.5 1H3.5L3.9 3L1.5 1ZM5.5 11H15.5L19.5 3H3.9L5.5 11ZM5.5 11L3.9 3L5.5 11ZM5.5 11L3.207 13.293C2.577 13.923 3.023 15 3.914 15H15.5L5.5 11ZM15.5 15C14.9696 15 14.4609 15.2107 14.0858 15.5858C13.7107 15.9609 13.5 16.4696 13.5 17C13.5 17.5304 13.7107 18.0391 14.0858 18.4142C14.4609 18.7893 14.9696 19 15.5 19C16.0304 19 16.5391 18.7893 16.9142 18.4142C17.2893 18.0391 17.5 17.5304 17.5 17C17.5 16.4696 17.2893 15.9609 16.9142 15.5858C16.5391 15.2107 16.0304 15 15.5 15ZM7.5 17C7.5 17.5304 7.28929 18.0391 6.91421 18.4142C6.53914 18.7893 6.03043 19 5.5 19C4.96957 19 4.46086 18.7893 4.08579 18.4142C3.71071 18.0391 3.5 17.5304 3.5 17C3.5 16.4696 3.71071 15.9609 4.08579 15.5858C4.46086 15.2107 4.96957 15 5.5 15C6.03043 15 6.53914 15.2107 6.91421 15.5858C7.28929 15.9609 7.5 16.4696 7.5 17V17Z"
        stroke-width="2" stroke-linecap="round" stroke-linejoin="round"/>
</svg>

<svg width="21" height="20" fill="none" aria-hidden="true" xmlns="http://www.w3.org/2000/svg"><path d="M1.5 1h2l.4 2-2.4-2Zm4 10h10l4-8H3.9l1.6 8Zm0 0L3.9 3l1.6 8Zm0 0-2.293 2.293c-.63.63-.184 1.707.707 1.707H15.5l-10-4Zm10 4a2 2 0 1 0 0 4 2 2 0 0 0 0-4Zm-8 2a2 2 0 1 1-4 0 2 2 0 0 1 4 0Z"/></svg>
